packages/sources/assets/src/assets/points-pay.svg

<svg width="58" height="40" viewBox="0 0 58 40" fill="none" xmlns="http://www.w3.org/2000/svg">
<rect x="0.5" y="0.5" width="57" height="39" rx="3.5" fill="white" stroke="#F3F3F3"/>
<path fill-rule="evenodd" clip-rule="evenodd" d="M29.5023 12.4993C27.9574 10.3278 25.4005 9 22.5223 9C17.8351 9 14 12.6316 14 17.4737C14 17.5109 14.0002 17.5481 14.0006 17.5852L14 17.5837V30.5694C14 31.3397 14.6392 32 15.4914 32C16.3436 32 16.9828 31.3397 16.9828 30.5694V24.1866L16.89 23.9812C18.3946 25.2906 20.3685 26.0574 22.5223 26.0574C24.5823 26.0574 26.4777 25.356 27.9553 24.1493V30.5694C27.9553 31.3397 28.5945 32 29.4467 32C30.299 32 30.9381 31.3397 30.9381 30.5694V24.1866L30.8454 23.9812C32.3499 25.2906 34.3238 26.0574 36.4777 26.0574C41.1649 26.0574 45 22.4258 45 17.4737C45 12.5215 41.1649 9 36.4777 9C33.5558 9 31.0296 10.3492 29.5023 12.4993ZM22.5223 11.7512C25.5052 11.7512 27.9553 14.1722 27.9553 17.5837C27.9553 20.9952 25.5052 23.4163 22.5223 23.4163C19.5395 23.4163 17.0893 20.8852 17.0893 17.5837C17.0893 14.1722 19.5395 11.7512 22.5223 11.7512ZM36.4777 23.4163C39.4605 23.4163 41.9107 20.9952 41.9107 17.5837C41.9107 14.1722 39.4605 11.7512 36.4777 11.7512C33.4948 11.7512 31.0447 14.1722 31.0447 17.5837C31.0447 20.8852 33.4948 23.4163 36.4777 23.4163Z" fill="#223066"/>
</svg>

<svg width="58" height="40" fill="none" xmlns="http://www.w3.org/2000/svg"><rect x=".5" y=".5" width="57" height="39" rx="3.5" fill="#fff" stroke="#F3F3F3"/><path fill-rule="evenodd" clip-rule="evenodd" d="M29.502 12.5c-1.545-2.172-4.101-3.5-6.98-3.5C17.835 9 14 12.632 14 17.474v.111-.001 12.985c0 .77.64 1.431 1.491 1.431.853 0 1.492-.66 1.492-1.43v-6.383l-.093-.206c1.505 1.31 3.479 2.076 5.632 2.076 2.06 0 3.956-.701 5.433-1.908v6.42c0 .77.64 1.431 1.492 1.431s1.491-.66 1.491-1.43v-6.383l-.093-.206c1.505 1.31 3.479 2.076 5.633 2.076 4.687 0 8.522-3.631 8.522-8.583C45 12.52 41.165 9 36.478 9c-2.922 0-5.448 1.35-6.976 3.5Zm-6.98-.749c2.983 0 5.433 2.421 5.433 5.833 0 3.411-2.45 5.832-5.433 5.832-2.982 0-5.433-2.53-5.433-5.832 0-3.412 2.45-5.833 5.433-5.833Zm13.956 11.665c2.983 0 5.433-2.42 5.433-5.832s-2.45-5.833-5.433-5.833c-2.983 0-5.433 2.421-5.433 5.833 0 3.301 2.45 5.832 5.433 5.832Z" fill="#223066"/></svg>
